!!!COM: Schiørring, Niels
!!!CDT: 1743-1798
!!!OPR@@DA: Choral-Bog
!!!ONM: 67
!!!OTL@@DA: Min Siel nu lover Herren
**kern	**fb	**kern	**kern	**kern	**kern	**kern	**kern	**kern
*part6	*part6	*part6	*part5	*part5	*part4	*part3	*part2	*part1
*staff8	*	*staff7	*staff6	*staff5	*staff4	*staff3	*staff2	*staff1
*clefF4	*	*clefC1	*clefF4	*clefC1	*clefF4	*clefC4	*clefC3	*clefC1
*mclefF4	*	*mclefG2	*mclefF4	*mclefG2	*mclefF4	*mclefGv2	*mclefG2	*mclefG2
*k[f#]	*	*k[f#]	*k[f#]	*k[f#]	*k[f#]	*k[f#]	*k[f#]	*k[f#]
*G:	*	*G:	*G:	*G:	*G:	*G:	*G:	*G:
*M3/2	*	*M3/2	*M3/2	*M3/2	*M3/2	*M3/2	*M3/2	*M3/2
*	*	*	*^	*^	*	*	*	*
=1	=1	=1	=1	=1	=1	=1	=1	=1	=1	=1
2G	.	2g	2B	2G	2g	2d	2G	2B	2d	2g
=2	=2	=2	=2	=2	=2	=2	=2	=2	=2	=2
1E	.	1g	1B	1E	1g	1e	1E	1B	1e	1g
2BB	.	2f#	2B	2BB	2f#	2d	2BB	2B	2d	2f#
=3	=3	=3	=3	=3	=3	=3	=3	=3	=3	=3
1C	.	1e	1G	1C	1e	1c	1C	1G	1c	1e
2G	.	2d	2G	2G	2d	2B	2G	2G	2B	2d
=4	=4	=4	=4	=4	=4	=4	=4	=4	=4	=4
1E	.	1g	[1G	1E	1g	1B	(1E	[1G	(1B	(1g
2D	4	2a	4G]	2D	2a	2d	2D)	(4G]	2d)	2a)
.	3	.	4F#	.	.	.	.	4F#)	.	.
=5	=5	=5	=5	=5	=5	=5	=5	=5	=5	=5
1GG	.	1b	1G	1GG	1b	1d	1GG	1G	1d	1b
2G	.	2b	2ryy	2G	2d	2g	2G	2d	2g	2b
=6	=6	=6	=6	=6	=6	=6	=6	=6	=6	=6
2E	.	1b	1.ryy	2E	1e	1g	(2E	1e	1g	1b
2D	2	.	.	2D	.	.	2D)	.	.	.
2C#X	7 5	2b	.	2C#X	2e	2g	2C#X	2e	2g	2b
=7	=7	=7	=7	=7	=7	=7	=7	=7	=7	=7
2D	6 4	1b	2ryy	2D	2d	2g	2D	(2d	(2g	1b
1D#X	6	.	1B	1D#X	2ryy	1f#	1D#X	2B)	2f#)	.
.	5	2a	.	.	2a	.	.	2B	2f#	2a
=8	=8	=8	=8	=8	=8	=8	=8	=8	=8	=8
2E	.	2g	2B	2E	2g	[2g	(2E	(2B	1g	2g
2C	6 5	1a	2ryy	2C	2e	2g]	2C)	2e)	.	1a
2Dni	.	.	2ryy	2Dni	2dn	2f#	2Dni	2d	2f#	.
=9	=9	=9	=9	=9	=9	=9	=9	=9	=9	=9
1GG	.	1g	1ryy	1GG	1B	1d	1GG	1B	1g	1g
=10:|!	=10:|!	=10:|!	=10:|!	=10:|!	=10:|!	=10:|!	=10:|!	=10:|!	=10:|!	=10:|!
2C	.	2g	2G	2C	2g	2e	2C	2c	2e	2g
=11	=11	=11	=11	=11	=11	=11	=11	=11	=11	=11
1BB	6	1g	1G	1BB	1g	1d	1BB	1d	1g	1g
2GG	.	2b	2ryy	2GG	2d	[2g	2GG	2d	[2g	2b
=12	=12	=12	=12	=12	=12	=12	=12	=12	=12	=12
1D	4	1a	2ryy	1D	1d	2g]	1D	1d	(2g]	1a
.	3	.	2ryy	.	.	1f#	.	.	2f#)	.
2D#X	6	2b	2B	2D#X	2b	.	2D#X	2B	2f#	2b
=13	=13	=13	=13	=13	=13	=13	=13	=13	=13	=13
1E	.	1g	1B	1E	1g	1e	(1E	(1B	(1e	(1g
2BB	#	2f#	2A	2BB	2f#	2d#X	2BB)	2A)	2d#X)	2f#)
=14	=14	=14	=14	=14	=14	=14	=14	=14	=14	=14
*	*	*	*	*	*	*	*^	*	*	*
1EE	.	1e	1G	1E	1e	1B	1E	1EE	1G	1e	1e
*	*	*	*	*	*	*	*v	*v	*	*	*
2E	.	2e	2G	2E	2e	2B	2E	2G	2B	2e
=15	=15	=15	=15	=15	=15	=15	=15	=15	=15	=15
2C#X	6	1a	1A	2C#X	1a	2e	(2C#X	1A	(2e	1a
2AA	#	.	.	2AA	.	2c#X	2AA)	.	2c#X)	.
2D	.	2f#	2A	2D	2f#	2d	2D	2A	2d	2f#
=16	=16	=16	=16	=16	=16	=16	=16	=16	=16	=16
2GG	.	2g	2ryy	2GG	2B	1d	2GG	2B	1d	2g
1AA	4	1e	2A	1AA	1e	.	1AA	(2A	.	1e
.	#	.	2G	.	.	2c#X	.	2G)	2c#X	.
=17	=17	=17	=17	=17	=17	=17	=17	=17	=17	=17
1D	.	1d	1F#	1D	1d	1A	1D	1F#	1d	1d
2C	2	2d	2F#	2Cni	2d	2A	2C	2F#	2A	2d
=18	=18	=18	=18	=18	=18	=18	=18	=18	=18	=18
1BB	6	1g	1G	1BB	1g	1d	1BB	1G	1d	1g
2E	.	2g	2G	2E	2g	2B	2E	2B	2g	2g
=19	=19	=19	=19	=19	=19	=19	=19	=19	=19	=19
1C	6 5	1a	1G	1C	1a	1e	1C	1e	1g	1a
2D	.	2a	2F#	2D	2a	2d	2D	2d	2f#	2a
=20	=20	=20	=20	=20	=20	=20	=20	=20	=20	=20
2G	.	(2.b	[2G	2G	2.b	1.d	(2G	1.d	(1g	(2.b
1GG	8	.	2G]	1GG	.	.	1GG)	.	.	.
.	.	4a	.	.	4a	.	.	.	.	4a
.	n7	2b)	[2Fn	.	2b	.	.	.	[2fn)	2b)
=21	=21	=21	=21	=21	=21	=21	=21	=21	=21	=21
1C	nr4	1g	2F]	1C	1g	1c	1C	1c	(2f]	1g
.	3	.	2E	.	.	.	.	.	2e)	.
2E	.	2g	2G	2E	2g	2B	2E	2B	2e	2g
=22	=22	=22	=22	=22	=22	=22	=22	=22	=22	=22
1AA	.	1cc	1A	1AA	1cc	1e	1AA	1A	1e	1cc
2Fn	.	2cc	[2A	2Fn	2cc	2fn	2Fn	[2A	2fn	2cc
=23	=23	=23	=23	=23	=23	=23	=23	=23	=23	=23
2D	6 5 n	(2.b	2A]	2D	(2.b	2fn	2D	2A]	2fn	(2.b
1E	#	.	1G#X	1E	.	1e	1E	1G#X	1e	.
.	.	4a)	.	.	4a)	.	.	.	.	4a)
.	.	2b	.	.	2b	.	.	.	.	2b
=24	=24	=24	=24	=24	=24	=24	=24	=24	=24	=24
*	*	*	*	*	*	*^	*	*	*	*
1AA	.	1a	1A	1AA	1a	1e	1c\	1AA	1A	1c	1a
*	*	*	*	*	*	*v	*v	*	*	*	*
2D	#	2a	2ryy	2D	2d	2f#Xi	2D	2A	2f#Xi	2a
=25	=25	=25	=25	=25	=25	=25	=25	=25	=25	=25
1G	.	1b	1.ryy	1G	1d	1g	1G	1G	1d	1b
2E	.	2b	.	2E	2e	2g	2E	2B	2g	2b
=26	=26	=26	=26	=26	=26	=26	=26	=26	=26	=26
1A	.	1cc	1.ryy	1A	1e	1a	1A	(2A	1e	1cc
.	.	.	.	.	.	.	.	2e)	.	.
2AA	6	2cc	.	2AA	2f#	[2a	2AA	2f#	[2a	2cc
=27	=27	=27	=27	=27	=27	=27	=27	=27	=27	=27
1.BB	7	1.dd	1.ryy	1.BB	1.d	2a]	1.BB	1.d	(2a]	1.dd
.	6	.	.	.	.	2g	.	.	2g	.
.	nr5	.	.	.	.	[2fn	.	.	[2fn)	.
=28	=28	=28	=28	=28	=28	=28	=28	=28	=28	=28
1C	nr4	1g	1.ryy	1C	1c	2f]	1C	1c	(2f]	1g
.	3	.	.	.	.	2e	.	.	2e)	.
2GG	.	2b	.	2GG	2d	2g	2GG	2d	2g	2b
=29	=29	=29	=29	=29	=29	=29	=29	=29	=29	=29
1AA	#	1a	1.ryy	1AA	1c#X	1e	1AA	1c#X	1e	1a
2BB	.	2f#	.	2BB	2d	2d	2BB	2d	2d	2f#
=30	=30	=30	=30	=30	=30	=30	=30	=30	=30	=30
2GG	.	2g	2ryy	2GG	2B	1d	2GG	2B	1d	2g
1AA	4	1e	2A	1AA	1e	.	1AA	(2A	.	1e
.	#	.	2G	.	.	2c#X	.	2G)	2c#X	.
=31	=31	=31	=31	=31	=31	=31	=31	=31	=31	=31
1D	.	1d	1F#	1D	1d	1A	1D	1F#	1d	1d
2BB	.	2d	2F#	2BB	2d	2B	2BB	2F#	2d	2d
=32	=32	=32	=32	=32	=32	=32	=32	=32	=32	=32
*	*	*	*	*	*	*	*^	*	*	*
2E	.	1g	2G	2E	1g	2B	[2E	2E	1G	1B	1g
2EE	.	.	2ryy	2EE	.	2e	2E]	2EE	.	.	.
2FF#	6	2f#	2ryy	2FF#	2A	[2d	2F#	2FF#	2A	[2d	2f#
=33	=33	=33	=33	=33	=33	=33	=33	=33	=33	=33	=33
2GG	6 5	1e	2ryy	2GG	2B	2d]	(2G	2GG	(2B	(2d]	1e
2AA	#	.	2ryy	2AA	2A	2c#X	2A)	2AA	2A)	2c#X)	.
2BB	.	2d	2F#	2BB	2d	2d	2B	2BB	2F#	2d	2d
*	*	*	*	*	*	*	*v	*v	*	*	*
=34	=34	=34	=34	=34	=34	=34	=34	=34	=34	=34
2FF#	6	1a	1.ryy	2FF#	2A	2d	(2F#	(2A	(2d	(1a
2DD	.	.	.	2DD	2d	2f#	2D	1d)	2f#	.
2GG	.	2b	.	2GG	2d	[2g	2G)	.	[2g)	2b)
=35	=35	=35	=35	=35	=35	=35	=35	=35	=35	=35
*	*	*	*	*^	*	*	*	*	*	*
1D	4	1a	1.ryy	1DD	1D\	1d	2g]	1D	1d	(2g]	1a
.	3	.	.	.	.	.	2f#	.	.	2f#)	.
*	*	*	*	*v	*v	*	*	*	*	*	*
2Fn	2	2b	.	2Fn	2d	2g	2Fn	2G	2d	2b
=36	=36	=36	=36	=36	=36	=36	=36	=36	=36	=36
2E	6	1cc	1.ryy	2E	2c	2g	(2E	(2G	1e	1cc
2C	6	.	.	2C	2e	2a	2C)	2A)	.	.
2D	.	2a	.	2D	2d	2f#Xi	2D	2F#	2d	2a
=37	=37	=37	=37	=37	=37	=37	=37	=37	=37	=37
2BB	6	2g	1.ryy	2BB	2d	[2g	(2BB	1G	(2d	2g
2C	6 5	1a	.	2C	2e	2g]	2C)	.	2e)	1a
2D	.	.	.	2D	2d	2f#	2D	2F#	2d	.
=38	=38	=38	=38	=38	=38	=38	=38	=38	=38	=38
1GG	.	1g	1ryy	1GG	1B	1d	1GG	1G	1B	1g
*	*	*	*v	*v	*	*	*	*	*	*
*	*	*	*	*v	*v	*	*	*	*
==	==	==	==	==	==	==	==	==
*-	*-	*-	*-	*-	*-	*-	*-	*-
!!!system-decoration: {(s1,s2,s3,s4)}{(s5,s6)}{(s7,s8)}
!!!RDF**kern: i = editorial accidental
!!!RDF**kern: > = above
!!!RDF**kern: < = below
!!!AGN: chorale
!!!EED: Derek Remeš
!!!EED2: Victor Phan
!!!END: 2023/11/28
!!!ENC: Wolfgang Drescher
!!!EEV: 2023/12/10
!!!title: @{ONM}. @{OTL}
!!!verovio: mnumInterval 1